public/images/icons/re-badges/badge-classic.svg

<svg width="66" height="54" viewBox="0 0 66 54" fill="none" xmlns="http://www.w3.org/2000/svg">
<g id="Group 2390">
<g id="Vector">
<path d="M22.5352 19.1657C22.8476 18.8533 23.3541 18.8533 23.6665 19.1657L33.8489 29.348C34.1613 29.6604 34.1613 30.167 33.8489 30.4794L13.1528 51.1754C12.6489 51.6794 11.7871 51.3225 11.7871 50.6098L11.7871 42.0274C11.7871 41.5856 11.429 41.2274 10.9871 41.2274H2.40481C1.69208 41.2274 1.33515 40.3657 1.83913 39.8617L22.5352 19.1657Z" fill="#0084FF"/>
<path fill-rule="evenodd" clip-rule="evenodd" d="M24.7979 18.0343L34.9802 28.2167C35.9175 29.1539 35.9175 30.6735 34.9803 31.6108L14.2842 52.3068C12.7723 53.8187 10.1871 52.7479 10.1871 50.6098L10.1871 42.8274H2.40481C0.26663 42.8274 -0.804155 40.2423 0.707754 38.7304L21.4038 18.0343C22.3411 17.0971 23.8607 17.0971 24.7979 18.0343ZM23.6665 19.1657C23.3541 18.8533 22.8476 18.8533 22.5352 19.1657L1.83913 39.8617C1.33515 40.3657 1.69208 41.2274 2.40481 41.2274H10.9871C11.429 41.2274 11.7871 41.5856 11.7871 42.0274L11.7871 50.6098C11.7871 51.3225 12.6489 51.6794 13.1528 51.1754L33.8489 30.4794C34.1613 30.167 34.1613 29.6604 33.8489 29.348L23.6665 19.1657Z" fill="#3F4951"/>
<path d="M43.3531 19.1657C43.0406 18.8533 42.5341 18.8533 42.2217 19.1657L32.0394 29.348C31.7269 29.6604 31.7269 30.167 32.0394 30.4794L52.7354 51.1754C53.2394 51.6794 54.1011 51.3225 54.1011 50.6098V42.0274C54.1011 41.5856 54.4593 41.2274 54.9011 41.2274H63.4834C64.1962 41.2274 64.5531 40.3657 64.0491 39.8617L43.3531 19.1657Z" fill="#0084FF"/>
<path fill-rule="evenodd" clip-rule="evenodd" d="M41.0903 18.0343L30.908 28.2167C29.9707 29.1539 29.9707 30.6735 30.908 31.6108L51.604 52.3068C53.1159 53.8187 55.7011 52.7479 55.7011 50.6098V42.8274H63.4834C65.6216 42.8274 66.6924 40.2423 65.1805 38.7304L44.4844 18.0343C43.5472 17.0971 42.0276 17.0971 41.0903 18.0343ZM42.2217 19.1657C42.5341 18.8533 43.0406 18.8533 43.3531 19.1657L64.0491 39.8617C64.5531 40.3657 64.1962 41.2274 63.4834 41.2274H54.9011C54.4593 41.2274 54.1011 41.5856 54.1011 42.0274V50.6098C54.1011 51.3225 53.2394 51.6794 52.7354 51.1754L32.0394 30.4794C31.7269 30.167 31.7269 29.6604 32.0394 29.348L42.2217 19.1657Z" fill="#3F4951"/>
<path d="M51.4739 21.6C51.4739 32.6457 42.5196 41.6 31.4739 41.6C20.4282 41.6 11.4739 32.6457 11.4739 21.6C11.4739 10.5543 20.4282 1.6 31.4739 1.6C42.5196 1.6 51.4739 10.5543 51.4739 21.6Z" fill="white"/>
<path fill-rule="evenodd" clip-rule="evenodd" d="M53.0739 21.6C53.0739 33.5294 43.4033 43.2 31.4739 43.2C19.5446 43.2 9.8739 33.5294 9.8739 21.6C9.8739 9.67065 19.5446 0 31.4739 0C43.4033 0 53.0739 9.67065 53.0739 21.6ZM31.4739 41.6C42.5196 41.6 51.4739 32.6457 51.4739 21.6C51.4739 10.5543 42.5196 1.6 31.4739 1.6C20.4282 1.6 11.4739 10.5543 11.4739 21.6C11.4739 32.6457 20.4282 41.6 31.4739 41.6Z" fill="#3F4951"/>
<path d="M30.7178 10.7739C30.9668 10.0575 31.9801 10.0575 32.2291 10.7739L34.5823 17.5437C34.6921 17.8597 34.9871 18.074 35.3216 18.0808L42.4872 18.2269C43.2455 18.2423 43.5587 19.206 42.9542 19.6642L37.243 23.9942C36.9763 24.1963 36.8637 24.5431 36.9606 24.8633L39.036 31.7233C39.2556 32.4493 38.4359 33.0449 37.8133 32.6117L31.9304 28.518C31.6557 28.3269 31.2911 28.3269 31.0165 28.518L25.1336 32.6117C24.511 33.0449 23.6913 32.4493 23.9109 31.7233L25.9863 24.8633C26.0832 24.5431 25.9706 24.1963 25.7039 23.9942L19.9927 19.6642C19.3882 19.206 19.7013 18.2423 20.4597 18.2269L27.6253 18.0808C27.9598 18.074 28.2548 17.8597 28.3646 17.5437L30.7178 10.7739Z" fill="white"/>
<path fill-rule="evenodd" clip-rule="evenodd" d="M31.4734 12.2549L29.4981 17.9377C29.2234 18.7278 28.4861 19.2636 27.6497 19.2806L21.6346 19.4032L26.4289 23.0379C27.0955 23.5433 27.3771 24.4102 27.1349 25.2108L25.3927 30.9694L30.3311 27.533C31.0177 27.0552 31.9292 27.0552 32.6158 27.533L37.5542 30.9694L35.812 25.2108C35.5697 24.4101 35.8514 23.5433 36.518 23.0379L41.3123 19.4032L35.2972 19.2806C34.4608 19.2636 33.7234 18.7278 33.4488 17.9377L31.4734 12.2549ZM32.2291 10.7739C31.9801 10.0575 30.9668 10.0575 30.7178 10.7739L28.3646 17.5437C28.2548 17.8597 27.9598 18.074 27.6253 18.0808L20.4597 18.2269C19.7013 18.2423 19.3882 19.206 19.9927 19.6642L25.7039 23.9942C25.9706 24.1963 26.0832 24.5431 25.9863 24.8633L23.9109 31.7233C23.6913 32.4493 24.511 33.0449 25.1336 32.6117L31.0165 28.518C31.2911 28.3269 31.6557 28.3269 31.9304 28.518L37.8133 32.6117C38.4359 33.0449 39.2556 32.4493 39.036 31.7233L36.9606 24.8633C36.8637 24.5431 36.9763 24.1963 37.243 23.9942L42.9542 19.6642C43.5587 19.206 43.2455 18.2423 42.4872 18.2269L35.3216 18.0808C34.9871 18.074 34.6921 17.8597 34.5823 17.5437L32.2291 10.7739Z" fill="#3F4951"/>
<path d="M30.7178 10.7739C30.9668 10.0575 31.9801 10.0575 32.2291 10.7739L34.5823 17.5437C34.6921 17.8597 34.9871 18.074 35.3216 18.0808L42.4872 18.2269C43.2455 18.2423 43.5587 19.206 42.9542 19.6642L37.243 23.9942C36.9763 24.1963 36.8637 24.5431 36.9606 24.8633L39.036 31.7233C39.2556 32.4493 38.4359 33.0449 37.8133 32.6117L31.9304 28.518C31.6557 28.3269 31.2911 28.3269 31.0165 28.518L25.1336 32.6117C24.511 33.0449 23.6913 32.4493 23.9109 31.7233L25.9863 24.8633C26.0832 24.5431 25.9706 24.1963 25.7039 23.9942L19.9927 19.6642C19.3882 19.206 19.7013 18.2423 20.4597 18.2269L27.6253 18.0808C27.9598 18.074 28.2548 17.8597 28.3646 17.5437L30.7178 10.7739Z" fill="#CBE1FF"/>
<path fill-rule="evenodd" clip-rule="evenodd" d="M31.4734 12.2549L29.4981 17.9377C29.2234 18.7278 28.4861 19.2636 27.6497 19.2806L21.6346 19.4032L26.4289 23.0379C27.0955 23.5433 27.3771 24.4102 27.1349 25.2108L25.3927 30.9694L30.3311 27.533C31.0177 27.0552 31.9292 27.0552 32.6158 27.533L37.5542 30.9694L35.812 25.2108C35.5697 24.4101 35.8514 23.5433 36.518 23.0379L41.3123 19.4032L35.2972 19.2806C34.4608 19.2636 33.7234 18.7278 33.4488 17.9377L31.4734 12.2549ZM32.2291 10.7739C31.9801 10.0575 30.9668 10.0575 30.7178 10.7739L28.3646 17.5437C28.2548 17.8597 27.9598 18.074 27.6253 18.0808L20.4597 18.2269C19.7013 18.2423 19.3882 19.206 19.9927 19.6642L25.7039 23.9942C25.9706 24.1963 26.0832 24.5431 25.9863 24.8633L23.9109 31.7233C23.6913 32.4493 24.511 33.0449 25.1336 32.6117L31.0165 28.518C31.2911 28.3269 31.6557 28.3269 31.9304 28.518L37.8133 32.6117C38.4359 33.0449 39.2556 32.4493 39.036 31.7233L36.9606 24.8633C36.8637 24.5431 36.9763 24.1963 37.243 23.9942L42.9542 19.6642C43.5587 19.206 43.2455 18.2423 42.4872 18.2269L35.3216 18.0808C34.9871 18.074 34.6921 17.8597 34.5823 17.5437L32.2291 10.7739Z" fill="#3F4951"/>
</g>
</g>
</svg>

<svg fill="none" viewBox="0 0 66 54"><path fill="#0084FF" d="M22.535 19.166a.8.8 0 011.131 0L33.85 29.348a.8.8 0 010 1.131L13.153 51.175a.8.8 0 01-1.366-.565v-8.583a.8.8 0 00-.8-.8H2.405a.8.8 0 01-.566-1.365l20.696-20.696z"/><path fill="#3F4951" fill-rule="evenodd" d="M24.798 18.034L34.98 28.217a2.4 2.4 0 010 3.394L14.284 52.307c-1.512 1.512-4.097.44-4.097-1.697v-7.783H2.405c-2.138 0-3.21-2.585-1.697-4.097l20.696-20.696a2.4 2.4 0 013.394 0zm-1.131 1.132a.8.8 0 00-1.132 0L1.84 39.862a.8.8 0 00.566 1.365h8.582a.8.8 0 01.8.8v8.583a.8.8 0 001.366.565L33.849 30.48a.8.8 0 000-1.131L23.667 19.166z" clip-rule="evenodd"/><path fill="#0084FF" d="M43.353 19.166a.8.8 0 00-1.131 0L32.039 29.348a.8.8 0 000 1.131l20.696 20.696a.8.8 0 001.366-.565v-8.583a.8.8 0 01.8-.8h8.582a.8.8 0 00.566-1.365L43.353 19.166z"/><path fill="#3F4951" fill-rule="evenodd" d="M41.09 18.034L30.908 28.217a2.4 2.4 0 000 3.394l20.696 20.696c1.512 1.512 4.097.44 4.097-1.697v-7.783h7.782c2.139 0 3.21-2.585 1.697-4.097L44.484 18.034a2.4 2.4 0 00-3.394 0zm1.132 1.132a.8.8 0 011.131 0L64.05 39.862a.8.8 0 01-.566 1.365h-8.582a.8.8 0 00-.8.8v8.583a.8.8 0 01-1.366.565L32.04 30.48a.8.8 0 010-1.131l10.183-10.182z" clip-rule="evenodd"/><path fill="#fff" d="M51.474 21.6c0 11.046-8.954 20-20 20s-20-8.954-20-20 8.954-20 20-20 20 8.954 20 20z"/><path fill="#3F4951" fill-rule="evenodd" d="M53.074 21.6c0 11.93-9.67 21.6-21.6 21.6-11.93 0-21.6-9.67-21.6-21.6 0-11.93 9.67-21.6 21.6-21.6 11.93 0 21.6 9.67 21.6 21.6zm-21.6 20c11.046 0 20-8.954 20-20s-8.954-20-20-20-20 8.954-20 20 8.954 20 20 20z" clip-rule="evenodd"/><path fill="#fff" d="M30.718 10.774c.249-.716 1.262-.716 1.511 0l2.353 6.77a.8.8 0 00.74.537l7.165.146c.758.015 1.072.979.467 1.437l-5.711 4.33a.8.8 0 00-.282.87l2.075 6.86c.22.725-.6 1.32-1.223.888l-5.883-4.094a.8.8 0 00-.913 0l-5.883 4.094c-.623.433-1.443-.163-1.223-.889l2.075-6.86a.8.8 0 00-.282-.869l-5.711-4.33c-.605-.458-.292-1.422.467-1.437l7.165-.146a.8.8 0 00.74-.537l2.353-6.77z"/><path fill="#3F4951" fill-rule="evenodd" d="M31.473 12.255l-1.975 5.683a2 2 0 01-1.848 1.343l-6.015.122 4.794 3.635a2 2 0 01.706 2.173l-1.742 5.758 4.938-3.436a2 2 0 012.285 0l4.938 3.436-1.742-5.758a2 2 0 01.706-2.173l4.794-3.635-6.015-.122a2 2 0 01-1.848-1.343l-1.976-5.683zm.756-1.481c-.249-.716-1.262-.716-1.511 0l-2.353 6.77a.8.8 0 01-.74.537l-7.165.146c-.759.015-1.072.979-.467 1.437l5.71 4.33a.8.8 0 01.283.87l-2.075 6.86c-.22.725.6 1.32 1.223.888l5.883-4.094a.8.8 0 01.913 0l5.883 4.094c.623.433 1.443-.163 1.223-.889l-2.075-6.86a.8.8 0 01.282-.869l5.711-4.33c.605-.458.291-1.422-.467-1.437l-7.165-.146a.8.8 0 01-.74-.537l-2.353-6.77z" clip-rule="evenodd"/><path fill="#CBE1FF" d="M30.718 10.774c.249-.716 1.262-.716 1.511 0l2.353 6.77a.8.8 0 00.74.537l7.165.146c.758.015 1.072.979.467 1.437l-5.711 4.33a.8.8 0 00-.282.87l2.075 6.86c.22.725-.6 1.32-1.223.888l-5.883-4.094a.8.8 0 00-.913 0l-5.883 4.094c-.623.433-1.443-.163-1.223-.889l2.075-6.86a.8.8 0 00-.282-.869l-5.711-4.33c-.605-.458-.292-1.422.467-1.437l7.165-.146a.8.8 0 00.74-.537l2.353-6.77z"/><path fill="#3F4951" fill-rule="evenodd" d="M31.473 12.255l-1.975 5.683a2 2 0 01-1.848 1.343l-6.015.122 4.794 3.635a2 2 0 01.706 2.173l-1.742 5.758 4.938-3.436a2 2 0 012.285 0l4.938 3.436-1.742-5.758a2 2 0 01.706-2.173l4.794-3.635-6.015-.122a2 2 0 01-1.848-1.343l-1.976-5.683zm.756-1.481c-.249-.716-1.262-.716-1.511 0l-2.353 6.77a.8.8 0 01-.74.537l-7.165.146c-.759.015-1.072.979-.467 1.437l5.71 4.33a.8.8 0 01.283.87l-2.075 6.86c-.22.725.6 1.32 1.223.888l5.883-4.094a.8.8 0 01.913 0l5.883 4.094c.623.433 1.443-.163 1.223-.889l-2.075-6.86a.8.8 0 01.282-.869l5.711-4.33c.605-.458.291-1.422-.467-1.437l-7.165-.146a.8.8 0 01-.74-.537l-2.353-6.77z" clip-rule="evenodd"/></svg>
